Numix/16/status/yd-busy3.svg

<?xml version="1.0" encoding="UTF-8" standalone="no"?>
<!-- Created with Inkscape (http://www.inkscape.org/) -->

<svg
   xmlns:dc="http://purl.org/dc/elements/1.1/"
   xmlns:cc="http://creativecommons.org/ns#"
   xmlns:rdf="http://www.w3.org/1999/02/22-rdf-syntax-ns#"
   xmlns:svg="http://www.w3.org/2000/svg"
   xmlns="http://www.w3.org/2000/svg"
   xmlns:sodipodi="http://sodipodi.sourceforge.net/DTD/sodipodi-0.dtd"
   xmlns:inkscape="http://www.inkscape.org/namespaces/inkscape"
   id="svg2"
   version="1.1"
   inkscape:version="0.91 r"
   width="16"
   height="16"
   viewBox="0 0 16 16"
   sodipodi:docname="yd-busy3.svg">
  <metadata
     id="metadata8">
    <rdf:RDF>
      <cc:Work
         rdf:about="">
        <dc:format>image/svg+xml</dc:format>
        <dc:type
           rdf:resource="http://purl.org/dc/dcmitype/StillImage" />
        <dc:title />
      </cc:Work>
    </rdf:RDF>
  </metadata>
  <defs
     id="defs6">
    <clipPath
       id="clipPath-408241621">
      <g
         id="g3616"
         transform="translate(0,-1004.3622)">
        <path
           id="path3618"
           transform="matrix(15.333333,0,0,11.5,414.99999,878.8622)"
           d="m -24,13 c 0,1.105 -0.672,2 -1.5,2 -0.828,0 -1.5,-0.895 -1.5,-2 0,-1.105 0.672,-2 1.5,-2 0.828,0 1.5,0.895 1.5,2 z"
           inkscape:connector-curvature="0"
           style="fill:#1890d0" />
      </g>
    </clipPath>
    <clipPath
       id="clipPath-408241621-2">
      <g
         id="g3616-2"
         transform="translate(0,-1004.3622)">
        <path
           id="path3618-9"
           transform="matrix(15.333333,0,0,11.5,414.99999,878.8622)"
           d="m -24,13 c 0,1.105 -0.672,2 -1.5,2 -0.828,0 -1.5,-0.895 -1.5,-2 0,-1.105 0.672,-2 1.5,-2 0.828,0 1.5,0.895 1.5,2 z"
           inkscape:connector-curvature="0"
           style="fill:#1890d0" />
      </g>
    </clipPath>
    <clipPath
       id="clipPath-408241621-2-6">
      <g
         id="g3616-2-4"
         transform="translate(0,-1004.3622)">
        <path
           id="path3618-9-4"
           transform="matrix(15.333333,0,0,11.5,414.99999,878.8622)"
           d="m -24,13 c 0,1.105 -0.672,2 -1.5,2 -0.828,0 -1.5,-0.895 -1.5,-2 0,-1.105 0.672,-2 1.5,-2 0.828,0 1.5,0.895 1.5,2 z"
           inkscape:connector-curvature="0"
           style="fill:#1890d0" />
      </g>
    </clipPath>
  </defs>
  <sodipodi:namedview
     pagecolor="#ffffff"
     bordercolor="#666666"
     borderopacity="1"
     objecttolerance="10"
     gridtolerance="10"
     guidetolerance="10"
     inkscape:pageopacity="0"
     inkscape:pageshadow="2"
     inkscape:window-width="1366"
     inkscape:window-height="747"
     id="namedview4"
     showgrid="true"
     showguides="false"
     inkscape:zoom="22.627416"
     inkscape:cx="4.2200769"
     inkscape:cy="12.354745"
     inkscape:window-x="0"
     inkscape:window-y="21"
     inkscape:window-maximized="1"
     inkscape:current-layer="svg2">
    <inkscape:grid
       type="xygrid"
       id="grid4142" />
  </sodipodi:namedview>
  <path
     style="opacity:1;fill:#ececec;fill-opacity:0.94117647;fill-rule:nonzero;stroke:none;stroke-width:1;stroke-linecap:square;stroke-linejoin:round;stroke-miterlimit:4;stroke-dasharray:none;stroke-dashoffset:0;stroke-opacity:1"
     d="M 7.9406569,4.1327286 C 7.1810816,4.1804104 6.4223171,4.4389837 5.7749577,4.9093178 5.0176898,5.4595051 4.5164004,6.218482 4.2795939,7.048454 4.3941614,7.002925 4.5137716,6.958633 4.6311685,6.914074 4.866423,6.21718 5.3075649,5.5904109 5.9374633,5.1327629 7.0944785,4.2921422 8.6179954,4.1851243 9.8375971,4.8561909 l 0.5625189,0.3093857 -0.181255,0.2828222 c 0.301075,-0.044621 0.593973,-0.08026 0.881279,-0.1109414 L 11.064202,5.2343289 C 11.001376,5.2140283 10.92734,5.1923562 10.875133,5.1733893 10.623765,5.0820664 10.380744,4.9694897 10.142295,4.8483782 9.8796861,4.7149955 9.7084701,4.5926766 9.3766441,4.4061755 9.2730111,4.3479301 9.1491111,4.2802164 9.0266321,4.2139814 8.6722604,4.1386141 8.3066479,4.1097538 7.9406569,4.1327286 Z M 8.134414,5.6218422 C 7.617529,5.6177075 7.0919284,5.7763438 6.642175,6.103109 6.5499308,6.170128 6.4652327,6.242595 6.3843537,6.318741 6.6425771,6.240888 6.9004039,6.162815 7.1671931,6.090608 7.6543855,5.95875 8.1311018,5.848154 8.6016172,5.7468465 l 0.043752,-0.06719 C 8.4780058,5.6422197 8.3067087,5.6232205 8.134414,5.6218422 Z m 4.523593,0.2406328 c -0.03125,6.22e-4 -0.06692,0.0054 -0.09844,0.0063 l 0.07657,0.21407 0.206257,-0.05313 0.148442,0.589082 c 0.285685,1.135779 0.13199,2.312184 -0.354699,3.350115 2.202526,-1.039327 3.566777,-2.207219 3.339177,-3.06573 C 15.791444,6.205679 14.577587,5.82434 12.658013,5.862521 Z M 8.1047249,6.520311 C 7.8607606,6.579291 7.6184306,6.632136 7.3734502,6.698442 6.8254903,6.846743 6.2960599,7.008653 5.7874582,7.179708 5.5919979,7.643027 5.5380871,8.154008 5.6562037,8.650072 L 5.7905832,9.218841 5.7062052,9.242281 8.2719185,8.931333 7.3875129,10.307942 C 8.0505173,10.454387 8.7643442,10.309442 9.3750811,9.86574 10.199602,9.266691 10.581788,8.230033 10.350115,7.303152 L 10.209485,6.743758 7.7484629,7.076582 8.1047247,6.520313 Z m 3.7751291,1.006284 -0.31251,0.08282 c 0.08797,1.236449 -0.443078,2.468955 -1.485989,3.226673 -0.1472149,0.106959 -0.3005259,0.202304 -0.4578279,0.285948 0.303337,-0.09446 0.6018469,-0.189389 0.8906559,-0.290635 C 11.48473,9.985107 11.971132,8.745133 11.879854,7.5266 Z M 4.4639752,7.668787 c -0.1104991,0.04439 -0.2160181,0.08921 -0.3234486,0.13438 -0.01761,0.204485 -0.024784,0.409161 -0.010938,0.615646 L 4.4405367,8.335993 C 4.4264147,8.11176 4.4382467,7.889216 4.4639747,7.668782 Z M 2.8920463,8.379749 c -1.92425976,0.979376 -3.0783859,2.042884 -2.86728596,2.83916 0.2198518,0.833901 1.87725616,1.167053 4.18920626,0.992222 L 3.3639374,9.864176 3.1545553,9.920427 3.0108004,9.321969 C 2.9364716,9.009185 2.9052951,8.693918 2.8920463,8.379749 Z m 2.9922902,2.050071 -0.9969092,0.120317 0.3171984,0.871904 0.2187575,-0.339074 0.4922043,0.278134 c 0.3747561,0.212437 0.7802859,0.349122 1.1969162,0.425015 0.321259,-0.06776 0.652528,-0.15348 0.9828465,-0.235945 -0.6507415,0.03853 -1.307176,-0.09419 -1.8985029,-0.417202 L 5.6312028,10.825146 5.8843365,10.42982 Z"
     id="path4138"
     inkscape:connector-curvature="0" />
  <g
     id="g4263"
     transform="matrix(0.42307692,0,0,0.42307692,6.3606939,1.5192308)">
    <g
       style="fill:#ececec;fill-opacity:1"
       id="g3628"
       transform="matrix(0.34782609,0,0,0.34782609,2.6435901,2.6456559)" />
    <g
       transform="matrix(0.49988464,0,0,0.49988464,-37.411065,7.9950011)"
       clip-path="url(#clipPath-408241621)"
       id="g3650">
      <!-- color: #004794 -->
      <g
         id="g3652" />
    </g>
  </g>
  <g
     id="g4174"
     transform="matrix(-0.64723582,0.47024435,-0.47024435,-0.64723582,20.297901,9.92668)">
    <g
       style="fill:#ececec;fill-opacity:1"
       id="g3628-8"
       transform="matrix(0.34782609,0,0,0.34782609,2.6435901,2.6456559)">
      <path
         inkscape:connector-curvature="0"
         id="path3630"
         transform="matrix(2.875,0,0,2.875,97.067647,-33.481261)"
         d="m -25.40625,14.5 c 2.303968,0 4.367461,1.302964 5.28125,3.3125 l 1.21875,-0.46875 -1,3.46875 -3.3125,-1.84375 1.28125,-0.5 c -0.620857,-1.310198 -1.9541,-2.125 -3.46875,-2.125 -1.572637,0 -2.996131,0.939574 -3.5625,2.34375 L -30.75,18 c 0.844805,-2.103515 2.984794,-3.5 5.34375,-3.5 z m -5.5,4.71875 3.3125,1.78125 -1.28125,0.5 c 0.613358,1.304699 1.964097,2.15625 3.46875,2.15625 1.575636,0 2.978635,-0.910324 3.5625,-2.3125 l 1.78125,0.6875 c -0.876798,2.103015 -2.979296,3.46875 -5.34375,3.46875 -2.292471,0 -4.386956,-1.339213 -5.28125,-3.34375 l -1.21875,0.4375 z"
         style="fill:#ececec;fill-opacity:1"
         sodipodi:nodetypes="scccccsccscccsccsccc" />
    </g>
    <g
       transform="matrix(0.49988464,0,0,0.49988464,-37.411065,7.9950011)"
       clip-path="url(#clipPath-408241621-2)"
       id="g3650-3">
      <!-- color: #004794 -->
      <g
         id="g3652-1" />
    </g>
  </g>
  <g
     id="g4174-4"
     style="stroke:#000000;stroke-width:1.5;stroke-miterlimit:4;stroke-dasharray:none;stroke-opacity:1"
     transform="matrix(-0.809017,0.58778525,-0.58778525,-0.809017,16.377415,7.28707)">
    <g
       style="fill:#ececec;fill-opacity:1;stroke:#000000;stroke-width:4.3125;stroke-miterlimit:4;stroke-dasharray:none;stroke-opacity:1"
       id="g3628-8-4"
       transform="matrix(0.34782609,0,0,0.34782609,2.6435901,2.6456559)" />
    <g
       transform="matrix(0.49988464,0,0,0.49988464,-37.411065,7.9950011)"
       clip-path="url(#clipPath-408241621-2-6)"
       id="g3650-3-9"
       style="stroke:#000000;stroke-width:3.00069237;stroke-miterlimit:4;stroke-dasharray:none;stroke-opacity:1">
      <!-- color: #004794 -->
      <g
         id="g3652-1-7"
         style="stroke:#000000;stroke-width:3.00069237;stroke-miterlimit:4;stroke-dasharray:none;stroke-opacity:1" />
    </g>
  </g>
</svg>

<!-- Created with Inkscape (http://www.inkscape.org/) -->
<svg xmlns="http://www.w3.org/2000/svg" viewBox="0 0 16 16">
 <path d="m 7.941 4.133 c -0.76 0.048 -1.518 0.306 -2.166 0.777 -0.757 0.55 -1.259 1.309 -1.495 2.139 0.115 -0.046 0.234 -0.09 0.352 -0.134 0.235 -0.697 0.676 -1.324 1.306 -1.781 1.157 -0.841 2.681 -0.948 3.9 -0.277 l 0.563 0.309 -0.181 0.283 c 0.301 -0.045 0.594 -0.08 0.881 -0.111 l -0.036 -0.103 c -0.063 -0.02 -0.137 -0.042 -0.189 -0.061 -0.251 -0.091 -0.494 -0.204 -0.733 -0.325 -0.263 -0.133 -0.434 -0.256 -0.766 -0.442 -0.104 -0.058 -0.228 -0.126 -0.35 -0.192 -0.354 -0.075 -0.72 -0.104 -1.086 -0.081 m 0.194 1.489 c -0.517 -0.004 -1.042 0.155 -1.492 0.481 -0.092 0.067 -0.177 0.139 -0.258 0.216 0.258 -0.078 0.516 -0.156 0.783 -0.228 0.487 -0.132 0.964 -0.242 1.434 -0.344 l 0.044 -0.067 c -0.167 -0.037 -0.339 -0.056 -0.511 -0.058 m 4.524 0.241 c -0.031 0.001 -0.067 0.005 -0.098 0.006 l 0.077 0.214 0.206 -0.053 0.148 0.589 c 0.286 1.136 0.132 2.312 -0.355 3.35 2.203 -1.039 3.567 -2.207 3.339 -3.066 c -0.184 -0.698 -1.398 -1.079 -3.317 -1.041 m -4.553 0.658 c -0.244 0.059 -0.486 0.112 -0.731 0.178 -0.548 0.148 -1.077 0.31 -1.586 0.481 -0.195 0.463 -0.249 0.974 -0.131 1.47 l 0.134 0.569 -0.084 0.023 2.566 -0.311 -0.884 1.377 c 0.663 0.146 1.377 0.002 1.988 -0.442 0.825 -0.599 1.207 -1.636 0.975 -2.563 l -0.141 -0.559 -2.461 0.333 0.356 -0.556 m 3.775 1.01 -0.313 0.083 c 0.088 1.236 -0.443 2.469 -1.486 3.227 -0.147 0.107 -0.301 0.202 -0.458 0.286 0.303 -0.094 0.602 -0.189 0.891 -0.291 c 0.971 -0.846 1.457 -2.086 1.366 -3.305 m -7.416 0.142 c -0.11 0.044 -0.216 0.089 -0.323 0.134 -0.018 0.204 -0.025 0.409 -0.011 0.616 l 0.311 -0.083 c -0.014 -0.224 -0.002 -0.447 0.023 -0.667 m -1.572 0.711 c -1.924 0.979 -3.078 2.043 -2.867 2.839 0.22 0.834 1.877 1.167 4.189 0.992 l -0.85 -2.347 -0.209 0.056 -0.144 -0.598 c -0.074 -0.313 -0.106 -0.628 -0.119 -0.942 m 2.992 2.05 -0.997 0.12 0.317 0.872 0.219 -0.339 0.492 0.278 c 0.375 0.212 0.78 0.349 1.197 0.425 0.321 -0.068 0.653 -0.153 0.983 -0.236 -0.651 0.039 -1.307 -0.094 -1.899 -0.417 l -0.566 -0.308 0.253 -0.395" style="fill:#ececec;opacity:1;fill-opacity:0.941;stroke:none;fill-rule:nonzero"/>
 <g transform="matrix(0.42307692,0,0,0.42307692,6.3606939,1.5192308)">
  <g transform="matrix(0.49988464,0,0,0.49988464,-37.411065,7.9950011)">
   <!-- color: #004794 -->
  </g>
 </g>
 <g transform="matrix(-0.64723582,0.47024435,-0.47024435,-0.64723582,20.297901,9.92668)">
  <g transform="matrix(0.34782609,0,0,0.34782609,2.6435901,2.6456559)" style="fill:#ececec;fill-opacity:1">
   <path transform="matrix(2.875,0,0,2.875,97.067647,-33.481261)" d="m -25.406 14.5 c 2.304 0 4.367 1.303 5.281 3.313 l 1.219 -0.469 -1 3.469 -3.313 -1.844 1.281 -0.5 c -0.621 -1.31 -1.954 -2.125 -3.469 -2.125 -1.573 0 -2.996 0.94 -3.563 2.344 l -1.781 -0.688 c 0.845 -2.104 2.985 -3.5 5.344 -3.5 z m -5.5 4.719 3.313 1.781 -1.281 0.5 c 0.613 1.305 1.964 2.156 3.469 2.156 1.576 0 2.979 -0.91 3.563 -2.313 l 1.781 0.688 c -0.877 2.103 -2.979 3.469 -5.344 3.469 -2.292 0 -4.387 -1.339 -5.281 -3.344 l -1.219 0.438 z"/>
  </g>
  <g transform="matrix(0.49988464,0,0,0.49988464,-37.411065,7.9950011)">
   <!-- color: #004794 -->
  </g>
 </g>
 <g transform="matrix(-0.809017,0.58778525,-0.58778525,-0.809017,16.377415,7.28707)" style="stroke-dasharray:none;stroke-opacity:1;stroke-miterlimit:4;stroke:#000;stroke-width:1.5">
  <g transform="matrix(0.49988464,0,0,0.49988464,-37.411065,7.9950011)" style="stroke-width:3">
   <!-- color: #004794 -->
  </g>
 </g>
</svg>
